X: 11
T:Pasodoble Noso
M:2/4
L:1/16
R:Pasodoble
A:Galicia
K:C
C2E2G2| C6 G2| c2B2A2G2 | C6 G2 | c2B2A2G2 | B6 c2 | B2A2G2F2 | G2"F."c2
 GAGF
| E2 C2E2G2 | C6 G2 | c2B2A2G2 |C6 G2| c2B2A2G2 | B6 c2 | B2A2G2F2 | E8-
 | E2 :|2"F."c2 |: E2{F}E2F2 | G2"F."c2 GAGF | E"F."c E2F2G2 | A2"F."c2
ABAG | F"F."c F2G2A2 | B6 c2| B
2A2G2F2 | G2"F."c2 GAGF | E"F."c E2{F}E2F2 | G2"F."c2 GAGF | E"F."c E2F2
G2 | A2"F."c2 ABAG | F"F."c F2G2A
2 | B6 c2| B2G2A2B2 | c8- | "D.C." c2 :|

